static/images/Logos/LogoOnLight.svg

<svg height="44" viewBox="0 0 138 44" width="138" xmlns="http://www.w3.org/2000/svg" xmlns:xlink="http://www.w3.org/1999/xlink"><linearGradient id="a" x1="113.842773%" x2="26.123047%" y1="7.080078%" y2="65.534668%"><stop offset="0" stop-color="#fff"/><stop offset="1" stop-color="#fff" stop-opacity="0"/></linearGradient><radialGradient id="b" cx="50%" cy="50%" r="50%"><stop offset="0" stop-color="#eee"/><stop offset="1" stop-color="#fff" stop-opacity="0"/></radialGradient><g fill="none" fill-rule="evenodd"><circle cx="22" cy="22" fill="#74c9e6" fill-rule="nonzero" r="22"/><g fill="#00b364"><path d="m38.0045438 6.89730961-2.3253593 1.54986921-3.875784-.7749346-2.3253593-.77493461-3.1002939.77493461-2.3253594-.77493461 1.5498692-3.10084943h3.1008495l3.0386324-1.51876072c2.3431356 1.1587911 4.4629567 2.72254802 6.2628048 4.61961015"/><path d="m1.28878622 14.5629742c2.09025514-5.82031091 6.56423375-10.50431421 12.24475698-12.87483112l1.9924532 1.33282699 4.6507186.77549011-.7754901 2.32591483-2.3253593.7749346-2.3253593 3.87578399-3.8757841 2.3248039-5.42565321.7754901v2.3253593l1.55042471 1.5498692v3.1008494l-2.32535932-1.5504247-2.32535931-1.5504247z"/><path d="m21.726862 25.5003508-.7749346 3.875784-3.1008495 3.100294v2.3253593l-3.1002939 2.3253593v3.8752285l-2.3253593-.7749346-1.5504247-3.875784v-7.7510126l-3.87578405-.7749346-1.54986921-3.1008494v-2.3253593l1.54986921-1.5498692 2.32535932-2.3259149 1.55042473 3.100294h5.4256532l2.3253593 3.8763395z"/><path d="m39.7514706 34.9981043-1.7469268-1.7464632v-3.1002939l-1.5504247-3.1008494-1.5498692-3.1008495v-3.1008494l-2.3253593-1.5498692-3.1008494.7754901-5.4256533-2.3259148-.7749346-5.4256532 2.3253594-2.32535937h4.6507186l1.5498692 2.32535937 4.6507186.7749346 4.6512742-1.5504248.1970774-.1112686c1.7196334 3.1354636 2.6975293 6.7354854 2.6975293 10.563907 0 4.8624154-1.5774559 9.3563963-4.2485294 12.9981043z"/></g><g transform="translate(2 2)"><path d="m.00011883 19.9303133c.03743502 10.9367587 8.9147784 19.7914258 19.86075077 19.7914258 1.8326087 0 3.6065217-.2495652 5.2913043-.713913-.8204348.1030435-1.6578261.1995652-2.5056522.1565217-9.0834782-.4621739-18.14521735-8.26-18.42434779-19.2252174-.27879152-10.93964053 4.63486142-16.60122552 13.06279529-19.75639803.887823-.120496 1.7941589-.18273237 2.7150308-.18273237 11.045695 0 20 8.954305 20 20s-8.954305 20-20 20-20-8.954305-20-20c0-.0232374.00003963-.0464655.00011882-.0696842z" fill="url(#a)" fill-rule="nonzero" opacity=".575172"/><path d="m17.3552174.15652174c-9.78608697 1.23217391-17.3552174 9.58391304-17.3552174 19.70434786 0 10.9686956 8.89173913 19.8608695 19.8608696 19.8608695 1.8326087 0 3.6065217-.2495652 5.2913043-.713913-.8204348.1030435-1.6578261.1995652-2.5056522.1565217-9.0834782-.4621739-18.14521735-8.26-18.42434779-19.2252174-.27956521-10.96999997 4.66217392-16.63260866 13.13304349-19.78260866z" fill="#101b30" opacity=".101766"/></g><circle cx="30" cy="12" fill="url(#b)" fill-rule="nonzero" opacity=".75" r="9"/><g fill="#101b30" transform="translate(6.963087 11.315428)"><path d="m10.0453043 6.1887463c0-2.37026087-2.24882604 2.15797826-5.02265213 2.15797826-2.77382608 0-5.02265217-4.52823913-5.02265217-2.15797826 0 2.36980434 1.19517391 5.3691522 5.02265217 5.3691522 3.73389131 0 5.02265213-2.99934786 5.02265213-5.3691522"/><path d="m1.09747826 2.18094195s.71628261-.11458696 1.7261087-.34376087c1.36454347-.30997826 3.2655-.82904348 4.65971739-1.55765218 2.4255-1.26776087 1.79915217 2.13241305-2.92813044 3.09886957-4.72773913.96645652-4.68573913-.96234783-3.45769565-1.19745652"/><path d="m19.2912391 6.1887463c0-2.37026087 2.2488261 2.15797826 5.0226522 2.15797826s5.0226522-4.52823913 5.0226522-2.15797826c0 2.36980434-1.1951739 5.3691522-5.0226522 5.3691522-3.7338913 0-5.0226522-2.99934786-5.0226522-5.3691522"/><path d="m28.2390652 2.18094195s-.7162826-.11458696-1.7261087-.34376087c-1.3645435-.30997826-3.2655-.82904348-4.6597174-1.55765218-2.4255-1.26776087-1.7991521 2.13241305 2.9281305 3.09886957s4.6852826-.96234783 3.4576956-1.19745652"/><path d="m17.693413 19.0503333h-6.0502826c-.8788043 0-1.5978261-.7190218-1.5978261-1.5978261 0-.8788044.7190218-1.5978261 1.5978261-1.5978261h6.0502826c.8788044 0 1.5978261.7190217 1.5978261 1.5978261 0 .8788043-.7190217 1.5978261-1.5978261 1.5978261"/></g><g fill-rule="nonzero" transform="translate(54.855 6.092)"><path d="m12.502 8.949c-.0506669.74733707-.2089987 1.4439968-.475 2.09s-.6459975 1.2064976-1.14 1.6815-1.10832966.8486653-1.843 1.121-1.58966179.4085-2.565.4085c-1.10200551 0-2.05832928-.1709983-2.869-.513s-1.48199734-.8233302-2.014-1.444-.93099867-1.364829-1.197-2.2325c-.26600133-.86767101-.399-1.82082814-.399-2.8595 0-1.06400532.1361653-2.03616226.4085-2.9165s.68399724-1.6371635 1.235-2.2705c.55100275-.6333365 1.23499591-1.12733156 2.052-1.482.81700408-.35466844 1.77649449-.532 2.8785-.532 1.67200836 0 2.97982861.41482919 3.9235 1.2445.9436714.82967082 1.5421654 2.01082567 1.7955 3.5435l-3.629.418c-.06333365-.29133479-.14566616-.5636654-.247-.817s-.23749915-.47183241-.4085-.6555c-.17100086-.18366759-.3831654-.32933279-.6365-.437-.2533346-.1076672-.55733156-.1615-.912-.1615-1.73534201 0-2.603 1.32365343-2.603 3.971 0 .73467034.0633327 1.35849743.19 1.8715.1266673.51300256.30716549.92783175.5415 1.2445.2343345.3166683.51299838.544666.836.684.32300161.139334.68083137.209 1.0735.209 1.33000665 0 2.08999905-.7219928 2.28-2.166zm1.7286833-8.607h3.648v10.469h6.004l-.323 3.097h-9.329zm11.3236834 0h3.648v13.566h-3.648zm17.0046833 13.566v-7.467l-2.413 7.467h-2.66l-2.413-7.505v7.505h-3.363v-13.566h4.237l2.907 9.082 2.926-9.082h4.218v13.566zm13.8316833-13.566 4.712 13.566h-3.781l-.779-2.603h-4.579l-.76 2.603h-3.667l4.712-13.566zm-3.534 8.056h2.793l-1.387-4.674zm10.9816834-4.959h-3.914v-3.097h11.476v3.097h-3.914v10.469h-3.648zm9.2526833-3.097h9.709v3.002h-6.156v2.166h5.776v3.002h-5.776v2.394h6.555l-.304 3.002h-9.804z" fill="#101b30"/><path d="m12.502 27.949c-.0506669.7473371-.2089987 1.4439968-.475 2.09s-.6459975 1.2064976-1.14 1.6815-1.10832966.8486653-1.843 1.121-1.58966179.4085-2.565.4085c-1.10200551 0-2.05832928-.1709983-2.869-.513s-1.48199734-.8233302-2.014-1.444-.93099867-1.364829-1.197-2.2325-.399-1.8208281-.399-2.8595c0-1.0640053.1361653-2.0361623.4085-2.9165s.68399725-1.6371635 1.235-2.2705c.55100276-.6333365 1.23499592-1.1273316 2.052-1.482.81700409-.3546684 1.77649449-.532 2.8785-.532 1.67200836 0 2.97982862.4148292 3.9235 1.2445.9436714.8296708 1.5421654 2.0108257 1.7955 3.5435l-3.629.418c-.06333365-.2913348-.14566616-.5636654-.247-.817s-.23749914-.4718324-.4085-.6555c-.17100085-.1836676-.3831654-.3293328-.6365-.437s-.55733156-.1615-.912-.1615c-1.73534201 0-2.603 1.3236534-2.603 3.971 0 .7346703.0633327 1.3584974.19 1.8715s.3071655.9278318.5415 1.2445c.23433451.3166683.51299839.544666.836.684.32300162.139334.68083137.209 1.0735.209 1.33000665 0 2.08999905-.7219928 2.28-2.166zm1.7286833-8.607h3.648v4.921h4.408v-4.921h3.648v13.566h-3.648v-5.358h-4.408v5.358h-3.648zm20.4436834-.342c1.0640053 0 2.0076625.164665 2.831.494.8233374.329335 1.5168305.797997 2.0805 1.406s.9911652 1.3489956 1.2825 2.223.437 1.8556612.437 2.945c0 1.1020055-.1488319 2.0963289-.4465 2.983-.2976682.8866711-.7314972 1.6403302-1.3015 2.261-.5700029.6206698-1.2729959 1.0988317-2.109 1.4345-.8360042.3356683-1.792328.5035-2.869.5035-1.0640054 0-2.0076626-.164665-2.831-.494-.8233375-.329335-1.5168305-.797997-2.0805-1.406s-.9911652-1.3489956-1.2825-2.223-.437-1.8556612-.437-2.945c0-1.1020055.1488318-2.0963289.4465-2.983.2976681-.8866711.7314971-1.6403302 1.3015-2.261.5700028-.6206698 1.2729958-1.0988317 2.109-1.4345.8360041-.3356683 1.7923279-.5035 2.869-.5035zm-2.945 7.125c0 1.3046732.2406642 2.2958299.722 2.9735.4813357.6776701 1.2096618 1.0165 2.185 1.0165s1.7004976-.3388299 2.1755-1.0165c.4750023-.6776701.7125-1.6688268.7125-2.9735s-.2374977-2.2958299-.7125-2.9735c-.4750024-.6776701-1.2001618-1.0165-2.1755-1.0165s-1.7036643.3388299-2.185 1.0165c-.4813358.6776701-.722 1.6688268-.722 2.9735zm11.5896833-6.783h3.648v13.566h-3.648zm18.1636833 8.607c-.0506669.7473371-.2089986 1.4439968-.475 2.09-.2660013.6460032-.6459975 1.2064976-1.14 1.6815-.4940024.4750024-1.1083296.8486653-1.843 1.121-.7346703.2723347-1.5896618.4085-2.565.4085-1.1020055 0-2.0583292-.1709983-2.869-.513-.8106707-.3420017-1.4819973-.8233302-2.014-1.444-.5320026-.6206698-.9309986-1.364829-1.197-2.2325-.2660013-.867671-.399-1.8208281-.399-2.8595 0-1.0640053.1361653-2.0361623.4085-2.9165s.6839973-1.6371635 1.235-2.2705c.5510028-.6333365 1.2349959-1.1273316 2.052-1.482s1.7764945-.532 2.8785-.532c1.6720084 0 2.9798286.4148292 3.9235 1.2445s1.5421654 2.0108257 1.7955 3.5435l-3.629.418c-.0633336-.2913348-.1456661-.5636654-.247-.817-.1013338-.2533346-.2374991-.4718324-.4085-.6555-.1710008-.1836676-.3831654-.3293328-.6365-.437s-.5573315-.1615-.912-.1615c-1.735342 0-2.603 1.3236534-2.603 3.971 0 .7346703.0633327 1.3584974.19 1.8715s.3071655.9278318.5415 1.2445c.2343345.3166683.5129984.544666.836.684s.6808314.209 1.0735.209c1.3300067 0 2.0899991-.7219928 2.28-2.166zm1.7286834-8.607h9.709v3.002h-6.156v2.166h5.776v3.002h-5.776v2.394h6.555l-.304 3.002h-9.804z" fill="#00b364"/></g></g></svg>

<?xml version="1.0" encoding="UTF-8"?>
<svg width="141px" height="50px" viewBox="0 0 141 50" version="1.1" xmlns="http://www.w3.org/2000/svg" xmlns:xlink="http://www.w3.org/1999/xlink">
    <!-- Generator: Sketch 54.1 (76490) - https://sketchapp.com -->
    <title>Artboard</title>
    <desc>Created with Sketch.</desc>
    <defs>
        <linearGradient x1="113.842773%" y1="7.08007812%" x2="26.1230469%" y2="65.534668%" id="linearGradient-1">
            <stop stop-color="#FFFFFF" offset="0%"></stop>
            <stop stop-color="#FFFFFF" stop-opacity="0" offset="100%"></stop>
        </linearGradient>
        <radialGradient cx="50%" cy="50%" fx="50%" fy="50%" r="50%" id="radialGradient-2">
            <stop stop-color="#EEEEEE" offset="0%"></stop>
            <stop stop-color="#FFFFFF" stop-opacity="0" offset="100%"></stop>
        </radialGradient>
    </defs>
    <g id="Artboard" stroke="none" stroke-width="1" fill="none" fill-rule="evenodd">
        <circle id="Oval" fill="#16243E" fill-rule="nonzero" cx="25" cy="25" r="25"></circle>
        <circle id="Oval" fill="#74C9E6" fill-rule="nonzero" cx="25" cy="25" r="22"></circle>
        <path d="M41.0045438,9.89730961 L38.6791845,11.4471788 L34.8034005,10.6722442 L32.4780412,9.89730961 L29.3777473,10.6722442 L27.0523879,9.89730961 L28.6022571,6.79646018 L31.7031066,6.79646018 L34.741739,5.27769946 C37.0848746,6.43649056 39.2046957,8.00024748 41.0045438,9.89730961" id="Fill-4" fill="#00B364"></path>
        <path d="M4.28878622,17.5629742 C6.37904136,11.7426633 10.85302,7.05865999 16.5335432,4.68814308 L18.5259964,6.02097007 L23.176715,6.79646018 L22.4012249,9.12237501 L20.0758656,9.89730961 L17.7505063,13.7730936 L13.8747222,16.0978975 L8.44906899,16.8733876 L8.44906899,19.1987469 L9.9994937,20.7486161 L9.9994937,23.8494655 L7.67413438,22.2990408 L5.34877507,20.7486161 L4.28878622,17.5629742 Z" id="Combined-Shape" fill="#00B364"></path>
        <polygon id="Fill-8" fill="#00B364" points="24.726862 28.5003508 23.9519274 32.3761348 20.8510779 35.4764288 20.8510779 37.8017881 17.750784 40.1271474 17.750784 44.0023759 15.4254247 43.2274413 13.875 39.3516573 13.875 31.6006447 9.99921595 30.8257101 8.44934674 27.7248607 8.44934674 25.3995014 9.99921595 23.8496322 12.3245753 21.5237173 13.875 24.6240113 19.3006532 24.6240113 21.6260125 28.5003508"></polygon>
        <path d="M42.7514706,37.9981043 L41.0045438,36.2516411 L41.0045438,33.1513472 L39.4541191,30.0504978 L37.9042499,26.9496483 L37.9042499,23.8487989 L35.5788906,22.2989297 L32.4780412,23.0744198 L27.0523879,20.748505 L26.2774533,15.3228518 L28.6028127,12.9974924 L33.2535313,12.9974924 L34.8034005,15.3228518 L39.4541191,16.0977864 L44.1053933,14.5473616 L44.3024707,14.436093 C46.0221041,17.5715566 47,21.1715784 47,25 C47,29.8624154 45.4225441,34.3563963 42.7514706,37.9981043 Z" id="Combined-Shape" fill="#00B364"></path>
        <g id="Group-2" transform="translate(5.000000, 5.000000)">
            <path d="M0.000118832459,19.9303133 C0.037553853,30.867072 8.91489723,39.7217391 19.8608696,39.7217391 C21.6934783,39.7217391 23.4673913,39.4721739 25.1521739,39.0078261 C24.3317391,39.1108696 23.4943478,39.2073913 22.6465217,39.1643478 C13.5630435,38.7021739 4.50130435,30.9043478 4.22217391,19.9391304 C3.94338239,8.99948987 8.85703533,3.33790488 17.2849692,0.18273237 C18.1727922,0.0622363699 19.0791281,0 20,0 C31.045695,0 40,8.954305 40,20 C40,31.045695 31.045695,40 20,40 C8.954305,40 0,31.045695 0,20 C0,19.9767626 3.96295519e-05,19.9535345 0.000118824757,19.9303158 Z" id="Combined-Shape" fill="url(#linearGradient-1)" fill-rule="nonzero" opacity="0.575172061"></path>
            <path d="M17.3552174,0.156521739 C7.56913043,1.38869565 -1.13686838e-13,9.74043478 -1.13686838e-13,19.8608696 C-1.13686838e-13,30.8295652 8.89173913,39.7217391 19.8608696,39.7217391 C21.6934783,39.7217391 23.4673913,39.4721739 25.1521739,39.0078261 C24.3317391,39.1108696 23.4943478,39.2073913 22.6465217,39.1643478 C13.5630435,38.7021739 4.50130435,30.9043478 4.22217391,19.9391304 C3.9426087,8.96913043 8.88434783,3.30652174 17.3552174,0.156521739 Z" id="Fill-86" fill="#101B30" opacity="0.101766"></path>
        </g>
        <circle id="Oval" fill="url(#radialGradient-2)" fill-rule="nonzero" opacity="0.75" cx="33" cy="15" r="9"></circle>
        <g id="Group-3" transform="translate(9.963087, 14.315428)" fill="#101B30">
            <path d="M10.0453043,6.1887463 C10.0453043,3.81848543 7.79647826,8.34672456 5.02265217,8.34672456 C2.24882609,8.34672456 1.78523862e-13,3.81848543 1.78523862e-13,6.1887463 C1.78523862e-13,8.55855064 1.19517391,11.5578985 5.02265217,11.5578985 C8.75654348,11.5578985 10.0453043,8.55855064 10.0453043,6.1887463" id="Fill-87"></path>
            <path d="M1.09747826,2.18094195 C1.09747826,2.18094195 1.81376087,2.06635499 2.82358696,1.83718108 C4.18813043,1.52720282 6.08908696,1.0081376 7.48330435,0.279528904 C9.90880435,-0.988231965 9.28245652,2.41194195 4.55517391,3.37839847 C-0.172565217,4.34485499 -0.130565217,2.41605064 1.09747826,2.18094195" id="Fill-88"></path>
            <path d="M19.2912391,6.1887463 C19.2912391,3.81848543 21.5400652,8.34672456 24.3138913,8.34672456 C27.0877174,8.34672456 29.3365435,3.81848543 29.3365435,6.1887463 C29.3365435,8.55855064 28.1413696,11.5578985 24.3138913,11.5578985 C20.58,11.5578985 19.2912391,8.55855064 19.2912391,6.1887463" id="Fill-89"></path>
            <path d="M28.2390652,2.18094195 C28.2390652,2.18094195 27.5227826,2.06635499 26.5129565,1.83718108 C25.148413,1.52720282 23.2474565,1.0081376 21.8532391,0.279528904 C19.4277391,-0.988231965 20.054087,2.41194195 24.7813696,3.37839847 C29.5086522,4.34485499 29.4666522,2.41605064 28.2390652,2.18094195" id="Fill-90"></path>
            <path d="M17.693413,19.0503333 L11.6431304,19.0503333 C10.7643261,19.0503333 10.0453043,18.3313115 10.0453043,17.4525072 C10.0453043,16.5737028 10.7643261,15.8546811 11.6431304,15.8546811 L17.693413,15.8546811 C18.5722174,15.8546811 19.2912391,16.5737028 19.2912391,17.4525072 C19.2912391,18.3313115 18.5722174,19.0503333 17.693413,19.0503333" id="Fill-91"></path>
        </g>
        <g id="CLIMATE-CHOICE" transform="translate(56.855000, 9.092000)" fill-rule="nonzero">
            <path d="M12.502,8.949 C12.4513331,9.69633707 12.2930013,10.3929968 12.027,11.039 C11.7609987,11.6850032 11.3810025,12.2454976 10.887,12.7205 C10.3929975,13.1955024 9.77867034,13.5691653 9.044,13.8415 C8.30932966,14.1138347 7.45433821,14.25 6.479,14.25 C5.37699449,14.25 4.42067072,14.0790017 3.61,13.737 C2.79932928,13.3949983 2.12800266,12.9136698 1.596,12.293 C1.06399734,11.6723302 0.66500133,10.928171 0.399,10.0605 C0.13299867,9.19282899 -4.26325641e-14,8.23967186 -4.26325641e-14,7.201 C-4.26325641e-14,6.13699468 0.136165305,5.16483774 0.4085,4.2845 C0.680834695,3.40416226 1.09249724,2.6473365 1.6435,2.014 C2.19450275,1.3806635 2.87849591,0.88666844 3.6955,0.532 C4.51250408,0.17733156 5.47199449,0 6.574,0 C8.24600836,0 9.55382861,0.414829185 10.4975,1.2445 C11.4411714,2.07417082 12.0396654,3.25532567 12.293,4.788 L8.664,5.206 C8.60066635,4.91466521 8.51833384,4.6423346 8.417,4.389 C8.31566616,4.1356654 8.17950085,3.91716759 8.0085,3.7335 C7.83749914,3.54983241 7.6253346,3.40416721 7.372,3.2965 C7.1186654,3.1888328 6.81466844,3.135 6.46,3.135 C4.72465799,3.135 3.857,4.45865343 3.857,7.106 C3.857,7.84067034 3.9203327,8.46449743 4.047,8.9775 C4.1736673,9.49050256 4.35416549,9.90533175 4.5885,10.222 C4.8228345,10.5386683 5.10149838,10.766666 5.4245,10.906 C5.74750161,11.045334 6.10533137,11.115 6.498,11.115 C7.82800665,11.115 8.58799905,10.3930072 8.778,8.949 L12.502,8.949 Z M14.2306833,0.342 L17.8786833,0.342 L17.8786833,10.811 L23.8826833,10.811 L23.5596833,13.908 L14.2306833,13.908 L14.2306833,0.342 Z M25.5543667,0.342 L29.2023667,0.342 L29.2023667,13.908 L25.5543667,13.908 L25.5543667,0.342 Z M42.55905,13.908 L42.55905,6.441 L40.14605,13.908 L37.48605,13.908 L35.07305,6.403 L35.07305,13.908 L31.71005,13.908 L31.71005,0.342 L35.94705,0.342 L38.85405,9.424 L41.78005,0.342 L45.99805,0.342 L45.99805,13.908 L42.55905,13.908 Z M56.3907333,0.342 L61.1027333,13.908 L57.3217333,13.908 L56.5427333,11.305 L51.9637333,11.305 L51.2037333,13.908 L47.5367333,13.908 L52.2487333,0.342 L56.3907333,0.342 Z M52.8567333,8.398 L55.6497333,8.398 L54.2627333,3.724 L52.8567333,8.398 Z M63.8384167,3.439 L59.9244167,3.439 L59.9244167,0.342 L71.4004167,0.342 L71.4004167,3.439 L67.4864167,3.439 L67.4864167,13.908 L63.8384167,13.908 L63.8384167,3.439 Z M73.0911,0.342 L82.8001,0.342 L82.8001,3.344 L76.6441,3.344 L76.6441,5.51 L82.4201,5.51 L82.4201,8.512 L76.6441,8.512 L76.6441,10.906 L83.1991,10.906 L82.8951,13.908 L73.0911,13.908 L73.0911,0.342 Z" id="CLIMATE" fill="#16243E"></path>
            <path d="M12.502,27.949 C12.4513331,28.6963371 12.2930013,29.3929968 12.027,30.039 C11.7609987,30.6850032 11.3810025,31.2454976 10.887,31.7205 C10.3929975,32.1955024 9.77867034,32.5691653 9.044,32.8415 C8.30932966,33.1138347 7.45433821,33.25 6.479,33.25 C5.37699449,33.25 4.42067072,33.0790017 3.61,32.737 C2.79932928,32.3949983 2.12800266,31.9136698 1.596,31.293 C1.06399734,30.6723302 0.66500133,29.928171 0.399,29.0605 C0.13299867,28.192829 1.42108547e-14,27.2396719 1.42108547e-14,26.201 C1.42108547e-14,25.1369947 0.136165305,24.1648377 0.4085,23.2845 C0.680834695,22.4041623 1.09249725,21.6473365 1.6435,21.014 C2.19450276,20.3806635 2.87849592,19.8866684 3.6955,19.532 C4.51250409,19.1773316 5.47199449,19 6.574,19 C8.24600836,19 9.55382862,19.4148292 10.4975,20.2445 C11.4411714,21.0741708 12.0396654,22.2553257 12.293,23.788 L8.664,24.206 C8.60066635,23.9146652 8.51833384,23.6423346 8.417,23.389 C8.31566616,23.1356654 8.17950086,22.9171676 8.0085,22.7335 C7.83749915,22.5498324 7.6253346,22.4041672 7.372,22.2965 C7.1186654,22.1888328 6.81466844,22.135 6.46,22.135 C4.72465799,22.135 3.857,23.4586534 3.857,26.106 C3.857,26.8406703 3.9203327,27.4644974 4.047,27.9775 C4.1736673,28.4905026 4.3541655,28.9053318 4.5885,29.222 C4.82283451,29.5386683 5.10149839,29.766666 5.4245,29.906 C5.74750162,30.045334 6.10533137,30.115 6.498,30.115 C7.82800665,30.115 8.58799905,29.3930072 8.778,27.949 L12.502,27.949 Z M14.2306833,19.342 L17.8786833,19.342 L17.8786833,24.263 L22.2866833,24.263 L22.2866833,19.342 L25.9346833,19.342 L25.9346833,32.908 L22.2866833,32.908 L22.2866833,27.55 L17.8786833,27.55 L17.8786833,32.908 L14.2306833,32.908 L14.2306833,19.342 Z M34.6743667,19 C35.738372,19 36.6820292,19.164665 37.5053667,19.494 C38.3287041,19.823335 39.0221972,20.291997 39.5858667,20.9 C40.1495362,21.508003 40.5770319,22.2489956 40.8683667,23.123 C41.1597015,23.9970044 41.3053667,24.9786612 41.3053667,26.068 C41.3053667,27.1700055 41.1565348,28.1643289 40.8588667,29.051 C40.5611985,29.9376711 40.1273695,30.6913302 39.5573667,31.312 C38.9873638,31.9326698 38.2843708,32.4108317 37.4483667,32.7465 C36.6123625,33.0821683 35.6560387,33.25 34.5793667,33.25 C33.5153613,33.25 32.5717041,33.085335 31.7483667,32.756 C30.9250292,32.426665 30.2315362,31.958003 29.6678667,31.35 C29.1041972,30.741997 28.6767015,30.0010044 28.3853667,29.127 C28.0940319,28.2529956 27.9483667,27.2713388 27.9483667,26.182 C27.9483667,25.0799945 28.0971985,24.0856711 28.3948667,23.199 C28.6925348,22.3123289 29.1263638,21.5586698 29.6963667,20.938 C30.2663695,20.3173302 30.9693625,19.8391683 31.8053667,19.5035 C32.6413708,19.1678317 33.5976946,19 34.6743667,19 Z M31.7293667,26.125 C31.7293667,27.4296732 31.9700309,28.4208299 32.4513667,29.0985 C32.9327024,29.7761701 33.6610285,30.115 34.6363667,30.115 C35.6117049,30.115 36.3368643,29.7761701 36.8118667,29.0985 C37.286869,28.4208299 37.5243667,27.4296732 37.5243667,26.125 C37.5243667,24.8203268 37.286869,23.8291701 36.8118667,23.1515 C36.3368643,22.4738299 35.6117049,22.135 34.6363667,22.135 C33.6610285,22.135 32.9327024,22.4738299 32.4513667,23.1515 C31.9700309,23.8291701 31.7293667,24.8203268 31.7293667,26.125 Z M43.31905,19.342 L46.96705,19.342 L46.96705,32.908 L43.31905,32.908 L43.31905,19.342 Z M61.4827333,27.949 C61.4320664,28.6963371 61.2737347,29.3929968 61.0077333,30.039 C60.741732,30.6850032 60.3617358,31.2454976 59.8677333,31.7205 C59.3737309,32.1955024 58.7594037,32.5691653 58.0247333,32.8415 C57.290063,33.1138347 56.4350715,33.25 55.4597333,33.25 C54.3577278,33.25 53.4014041,33.0790017 52.5907333,32.737 C51.7800626,32.3949983 51.108736,31.9136698 50.5767333,31.293 C50.0447307,30.6723302 49.6457347,29.928171 49.3797333,29.0605 C49.113732,28.192829 48.9807333,27.2396719 48.9807333,26.201 C48.9807333,25.1369947 49.1168986,24.1648377 49.3892333,23.2845 C49.661568,22.4041623 50.0732306,21.6473365 50.6242333,21.014 C51.1752361,20.3806635 51.8592292,19.8866684 52.6762333,19.532 C53.4932374,19.1773316 54.4527278,19 55.5547333,19 C57.2267417,19 58.5345619,19.4148292 59.4782333,20.2445 C60.4219047,21.0741708 61.0203987,22.2553257 61.2737333,23.788 L57.6447333,24.206 C57.5813997,23.9146652 57.4990672,23.6423346 57.3977333,23.389 C57.2963995,23.1356654 57.1602342,22.9171676 56.9892333,22.7335 C56.8182325,22.5498324 56.6060679,22.4041672 56.3527333,22.2965 C56.0993987,22.1888328 55.7954018,22.135 55.4407333,22.135 C53.7053913,22.135 52.8377333,23.4586534 52.8377333,26.106 C52.8377333,26.8406703 52.901066,27.4644974 53.0277333,27.9775 C53.1544006,28.4905026 53.3348988,28.9053318 53.5692333,29.222 C53.8035678,29.5386683 54.0822317,29.766666 54.4052333,29.906 C54.7282349,30.045334 55.0860647,30.115 55.4787333,30.115 C56.80874,30.115 57.5687324,29.3930072 57.7587333,27.949 L61.4827333,27.949 Z M63.2114167,19.342 L72.9204167,19.342 L72.9204167,22.344 L66.7644167,22.344 L66.7644167,24.51 L72.5404167,24.51 L72.5404167,27.512 L66.7644167,27.512 L66.7644167,29.906 L73.3194167,29.906 L73.0154167,32.908 L63.2114167,32.908 L63.2114167,19.342 Z" id="CHOICE" fill="#00B364"></path>
        </g>
    </g>
</svg>
